X: 611
T: Puopuo bianda xifu
L: 1/16
M: 2/4
K: F
d2 d c d2 g2 [I:setbarnb 1]| 
f2 f d c2 A2 | 
d2 d f d c A2 | 
G2> F2G4 | 
G2 A2c4 | 
d c A G2< F2 D | 
G2 G A G F D C | 
D8 |]

@@@ Tune index: 9485
